assets/img/braze_icons/bell-off-01.svg

<svg fill="none" height="24" viewBox="0 0 24 24" width="24" xmlns="http://www.w3.org/2000/svg"><g fill="#801ed7"><path clip-rule="evenodd" d="m3.70711 2.29289c-.39053-.39052-1.02369-.39052-1.41422 0-.39052.39053-.39052 1.02369 0 1.41422l2.85613 2.85612c-.09839.46906-.14904.95038-.14904 1.43688 0 2.91269-.732 4.84389-1.49938 6.07709l-.01184.019c-.3573.5742-.63977 1.0282-.83019 1.3586-.09542.1655-.18235.325-.24671.4668-.03213.0707-.06807.1575-.09617.2518-.0233.0782-.0677.2454-.05106.449.01119.1368.03909.3705.17324.612s.31788.3887.42812.4704c.25029.1857.53772.2282.63365.2423l.00443.0007c.14741.0218.31468.0327.48344.0392.33521.0131.79928.0131 1.3764.0131h11.22199l3.707 3.707c.3905.3905 1.0237.3905 1.4142 0s.3905-1.0237 0-1.4142l-14.70918-14.70919c-.02115-.02326-.04345-.04557-.06684-.06684z" fill-rule="evenodd"/><path d="m8.6044 20.3383c.36546-.4141.9974-.4535 1.4115-.088.5294.4673 1.2225.7497 1.9841.7497.7615 0 1.4546-.2824 1.9841-.7497.414-.3655 1.046-.3261 1.4114.088.3655.414.3261 1.046-.088 1.4115-.8808.7774-2.0402 1.2502-3.3075 1.2502-1.2674 0-2.42678-.4728-3.3076-1.2502-.41406-.3655-.45347-.9975-.088-1.4115z"/><path d="m21.5306 17.2879c.1248-.2011.1856-.4312.2047-.6656.0167-.2036-.0277-.3708-.051-.449-.0281-.0943-.0641-.1811-.0962-.2518-.0644-.1418-.1513-.3013-.2467-.4668-.1904-.3304-.4728-.7842-.83-1.3582l-.012-.0194c-.7674-1.2332-1.4994-3.1644-1.4994-6.0771 0-1.85651-.7375-3.63699-2.0503-4.94975-1.3127-1.31275-3.0932-2.05025-4.9497-2.05025-1.7993 0-3.52709.6927-4.82695 1.93041z"/></g></svg>

<svg width="24" height="24" viewBox="0 0 24 24" fill="none" xmlns="http://www.w3.org/2000/svg">
<path fill-rule="evenodd" clip-rule="evenodd" d="M3.70711 2.29289C3.31658 1.90237 2.68342 1.90237 2.29289 2.29289C1.90237 2.68342 1.90237 3.31658 2.29289 3.70711L5.14902 6.56323C5.05063 7.03229 4.99998 7.51361 4.99998 8.00011C4.99998 10.9128 4.26798 12.844 3.5006 14.0772L3.48876 14.0962C3.13146 14.6704 2.84899 15.1244 2.65857 15.4548C2.56315 15.6203 2.47622 15.7798 2.41186 15.9216C2.37973 15.9923 2.34379 16.0791 2.31569 16.1734C2.29239 16.2516 2.24799 16.4188 2.26463 16.6224C2.27582 16.7592 2.30372 16.9929 2.43787 17.2344C2.57202 17.4759 2.75575 17.6231 2.86599 17.7048C3.11628 17.8905 3.40371 17.933 3.49964 17.9471L3.50407 17.9478C3.65148 17.9696 3.81875 17.9805 3.98751 17.987C4.32272 18.0001 4.78679 18.0001 5.36391 18.0001H16.5859L20.2929 21.7071C20.6834 22.0976 21.3166 22.0976 21.7071 21.7071C22.0976 21.3166 22.0976 20.6834 21.7071 20.2929L6.99792 5.58371C6.97677 5.56045 6.95447 5.53814 6.93108 5.51687L3.70711 2.29289Z" fill="#801ED7"/>
<path d="M8.6044 20.3383C8.96986 19.9242 9.6018 19.8848 10.0159 20.2503C10.5453 20.7176 11.2384 21 12 21C12.7615 21 13.4546 20.7176 13.9841 20.2503C14.3981 19.8848 15.0301 19.9242 15.3955 20.3383C15.761 20.7523 15.7216 21.3843 15.3075 21.7498C14.4267 22.5272 13.2673 23 12 23C10.7326 23 9.57322 22.5272 8.6924 21.7498C8.27834 21.3843 8.23893 20.7523 8.6044 20.3383Z" fill="#801ED7"/>
<path d="M21.5306 17.2879C21.6554 17.0868 21.7162 16.8567 21.7353 16.6223C21.752 16.4187 21.7076 16.2515 21.6843 16.1733C21.6562 16.079 21.6202 15.9922 21.5881 15.9215C21.5237 15.7797 21.4368 15.6202 21.3414 15.4547C21.151 15.1243 20.8686 14.6705 20.5114 14.0965L20.4994 14.0771C19.732 12.8439 19 10.9127 19 8C19 6.14349 18.2625 4.36301 16.9497 3.05025C15.637 1.7375 13.8565 1 12 1C10.2007 1 8.47291 1.6927 7.17305 2.93041L21.5306 17.2879Z" fill="#801ED7"/>
</svg>
